X:1
T: Mrs. Peggy Dykes
C:Muriel A Johnstone
R:Strathspey
%Q: 128
K:C
M:4/4
L:1/16
|:A2|Gc3 ce3 f3e d2ef|e3d ce3 AG3 G3F|E3G ce3 d3e f3g|ad3 d3e f6g2|
Gc3 ce3 f3e d2ef|e3d ce3 AG3 G3F|E3G c3e e2de fedc|Ac3 e3d c4-c3B|
cC3 C3c B3G d3B|cC3 EG3 c3d eg3|ad3 d3e f3e d3c|eA3 A3G G4-G3B|
cC3 C3c B3A G3d|ec3 c3d e3f g3G|A3B c3d e2de fedc|Ac3 e3d c6:|
